public/assets/oil1.svg

<svg width="80" height="105" viewBox="0 0 80 105" fill="none" xmlns="http://www.w3.org/2000/svg">
<path d="M69.0822 99.5674H55.6252V104.545H69.0822V99.5674Z" fill="url(#paint0_linear_38_363)"/>
<path d="M25.4948 99.5674H12.0378V104.545H25.4948V99.5674Z" fill="url(#paint1_linear_38_363)"/>
<path d="M7.69478 99.5684H4.45117V104.545H7.69478V99.5684Z" fill="url(#paint2_linear_38_363)"/>
<path d="M78.9871 99.5669H0.108398V0.834473H78.9871C79.3623 0.834473 79.6572 1.11741 79.6572 1.47751V98.9239C79.6572 99.2711 79.3623 99.5669 78.9871 99.5669Z" fill="url(#paint3_linear_38_363)"/>
<path d="M63.6394 95.4386H16.138C15.4008 95.4386 14.7842 94.8856 14.744 94.1783L9.77139 6.3132C9.73118 5.58013 10.3477 4.94995 11.1117 4.94995H68.6657C69.4431 4.94995 70.0462 5.56727 70.006 6.3132L65.02 94.1783C64.9797 94.8856 64.3766 95.4386 63.6394 95.4386Z" fill="#FEF7EC" stroke="#062023" stroke-width="3" stroke-miterlimit="10" stroke-linecap="round" stroke-linejoin="round"/>
<path d="M55.303 90.5005H24.4619C22.9876 90.5005 21.7812 89.343 21.7812 87.9283V74.8617C21.7812 73.447 22.9876 72.2896 24.4619 72.2896H55.303C56.7774 72.2896 57.9837 73.447 57.9837 74.8617V87.9283C57.9837 89.343 56.7774 90.5005 55.303 90.5005Z" fill="url(#paint4_linear_38_363)"/>
<path d="M51.683 83.5296C52.9118 83.5296 53.9079 82.5737 53.9079 81.3947C53.9079 80.2156 52.9118 79.2598 51.683 79.2598C50.4542 79.2598 49.458 80.2156 49.458 81.3947C49.458 82.5737 50.4542 83.5296 51.683 83.5296Z" fill="#FEF7EC"/>
<path d="M28.0794 83.5296C29.3083 83.5296 30.3044 82.5737 30.3044 81.3947C30.3044 80.2156 29.3083 79.2598 28.0794 79.2598C26.8506 79.2598 25.8545 80.2156 25.8545 81.3947C25.8545 82.5737 26.8506 83.5296 28.0794 83.5296Z" fill="#FEF7EC"/>
<path d="M47.2068 76.8164H32.5703V85.9733H47.2068V76.8164Z" fill="#062023"/>
<g clip-path="url(#clip0_38_363)">
<path d="M45.7448 56.1927C45.3688 56.3845 44.9721 55.9691 45.2024 55.6253C46.452 53.7592 47.6353 50.6189 45.75 46.5748C42.606 39.8308 40.6929 36.3378 40.6929 36.3378C40.6929 36.3378 39.6753 40.414 36.9169 44.0384C34.2621 47.5265 32.809 51.9135 35.1517 55.5682C35.3715 55.9112 34.9838 56.3159 34.6103 56.1324C31.7105 54.7091 28.458 51.8541 28.0911 46.1726C27.9558 44.4365 28.1587 42.006 29.1734 38.9389C30.478 35.0516 32.0819 33.2377 33.0099 32.4587C33.2875 32.2257 33.7192 32.4322 33.6964 32.7854C33.426 36.9798 35.0705 38.0442 36.0066 35.6455C36.3804 34.6874 36.5984 33.0303 36.5984 31.0122C36.5984 27.6525 37.6143 24.1939 39.8539 21.3835C40.4363 20.6526 41.1178 19.9697 41.8997 19.3873C42.1827 19.1765 42.5931 19.3884 42.5671 19.7314C42.3952 22.009 42.551 28.5364 48.5192 36.3347C53.9306 43.5684 51.8337 49.1239 51.0896 50.6286C49.667 53.5112 47.6827 55.204 45.7448 56.1927Z" fill="#009D8F"/>
</g>
<defs>
<linearGradient id="paint0_linear_38_363" x1="55.6218" y1="102.055" x2="69.0774" y2="102.055" gradientUnits="userSpaceOnUse">
<stop offset="0.00249518" stop-color="#28C985"/>
<stop offset="1" stop-color="#18808A"/>
</linearGradient>
<linearGradient id="paint1_linear_38_363" x1="12.0348" y1="102.055" x2="25.4904" y2="102.055" gradientUnits="userSpaceOnUse">
<stop offset="0.00249518" stop-color="#28C985"/>
<stop offset="1" stop-color="#18808A"/>
</linearGradient>
<linearGradient id="paint2_linear_38_363" x1="4.45094" y1="102.056" x2="7.70077" y2="102.056" gradientUnits="userSpaceOnUse">
<stop offset="0.00249518" stop-color="#28C985"/>
<stop offset="1" stop-color="#18808A"/>
</linearGradient>
<linearGradient id="paint3_linear_38_363" x1="-5.82483" y1="6.52754" x2="81.4443" y2="97.4781" gradientUnits="userSpaceOnUse">
<stop offset="0.00249518" stop-color="#28C985"/>
<stop offset="1" stop-color="#18808A"/>
</linearGradient>
<linearGradient id="paint4_linear_38_363" x1="26.8774" y1="68.9093" x2="51.8187" y2="94.9028" gradientUnits="userSpaceOnUse">
<stop offset="0.00249518" stop-color="#28C985"/>
<stop offset="1" stop-color="#18808A"/>
</linearGradient>
<clipPath id="clip0_38_363">
<rect width="38.4961" height="36.9379" fill="white" transform="matrix(-1 0 0 1 59.333 19.3035)"/>
</clipPath>
</defs>
</svg>

<svg width="80" height="105" fill="none" xmlns="http://www.w3.org/2000/svg"><path d="M69.082 99.567H55.625v4.978h13.457v-4.978z" fill="url(#a)"/><path d="M25.495 99.567H12.038v4.978h13.457v-4.978z" fill="url(#b)"/><path d="M7.695 99.568H4.45v4.977h3.244v-4.977z" fill="url(#c)"/><path d="M78.987 99.567H.108V.834h78.88c.374 0 .67.283.67.644v97.446a.659.659 0 0 1-.67.643z" fill="url(#d)"/><path d="M63.64 95.439H16.137c-.737 0-1.354-.553-1.394-1.26L9.771 6.312c-.04-.733.577-1.363 1.34-1.363h57.555c.777 0 1.38.617 1.34 1.363L65.02 94.178c-.04.708-.643 1.26-1.38 1.26z" fill="#FEF7EC" stroke="#062023" stroke-width="3" stroke-miterlimit="10" stroke-linecap="round" stroke-linejoin="round"/><path d="M55.303 90.5H24.462c-1.474 0-2.68-1.157-2.68-2.572V74.862c0-1.415 1.206-2.572 2.68-2.572h30.841c1.474 0 2.68 1.157 2.68 2.572v13.066c0 1.415-1.206 2.573-2.68 2.573z" fill="url(#e)"/><path d="M51.683 83.53c1.229 0 2.225-.956 2.225-2.135 0-1.18-.996-2.135-2.225-2.135s-2.225.956-2.225 2.135c0 1.179.996 2.135 2.225 2.135zM28.08 83.53c1.228 0 2.224-.956 2.224-2.135 0-1.18-.996-2.135-2.225-2.135-1.228 0-2.224.956-2.224 2.135 0 1.179.996 2.135 2.224 2.135z" fill="#FEF7EC"/><path d="M47.207 76.816H32.57v9.157h14.637v-9.157z" fill="#062023"/><g clip-path="url(#f)"><path d="M45.745 56.193c-.376.192-.773-.224-.543-.568 1.25-1.866 2.433-5.006.548-9.05-3.144-6.744-5.057-10.237-5.057-10.237s-1.018 4.076-3.776 7.7c-2.655 3.489-4.108 7.876-1.765 11.53.22.343-.168.748-.542.564-2.9-1.423-6.152-4.278-6.519-9.96-.135-1.735.068-4.166 1.082-7.233 1.305-3.887 2.909-5.701 3.837-6.48.278-.233.71-.027.686.326-.27 4.195 1.375 5.26 2.31 2.86.374-.958.592-2.615.592-4.633 0-3.36 1.016-6.818 3.256-9.628a11.133 11.133 0 0 1 2.046-1.997c.283-.21.693.001.667.344-.172 2.278-.016 8.805 5.952 16.604 5.412 7.233 3.315 12.789 2.57 14.294-1.422 2.882-3.406 4.575-5.344 5.564z" fill="#009D8F"/></g><defs><linearGradient id="a" x1="55.622" y1="102.055" x2="69.077" y2="102.055" gradientUnits="userSpaceOnUse"><stop offset=".002" stop-color="#28C985"/><stop offset="1" stop-color="#18808A"/></linearGradient><linearGradient id="b" x1="12.035" y1="102.055" x2="25.49" y2="102.055" gradientUnits="userSpaceOnUse"><stop offset=".002" stop-color="#28C985"/><stop offset="1" stop-color="#18808A"/></linearGradient><linearGradient id="c" x1="4.451" y1="102.056" x2="7.701" y2="102.056" gradientUnits="userSpaceOnUse"><stop offset=".002" stop-color="#28C985"/><stop offset="1" stop-color="#18808A"/></linearGradient><linearGradient id="d" x1="-5.825" y1="6.528" x2="81.444" y2="97.478" gradientUnits="userSpaceOnUse"><stop offset=".002" stop-color="#28C985"/><stop offset="1" stop-color="#18808A"/></linearGradient><linearGradient id="e" x1="26.877" y1="68.909" x2="51.819" y2="94.903" gradientUnits="userSpaceOnUse"><stop offset=".002" stop-color="#28C985"/><stop offset="1" stop-color="#18808A"/></linearGradient><clipPath id="f"><path fill="#fff" transform="matrix(-1 0 0 1 59.333 19.303)" d="M0 0h38.496v36.938H0z"/></clipPath></defs></svg>
